X:82
T:Hook or by Crook THO4.082
M:6/8
L:1/8
Z:vmp. Peter Dunk 2010/11.from a transcription by Fynn Titford-Mock 2007
B:Thompson's Compleat Collection of 200 Favourite Country Dances Volume IV.
Q:3/8=100
K:C
c/d/|ecg ecg|ecg ecg|Afe dcB|cGE C2 c/d/|\
ecg gfe|de^f gab|aga de^f|g3-[g2G2]:|
|:g|g2 c fdd|f2 d ecc|agf edc|B2 c dBG|\
ecg ecg|ecg ecg|Afe dcB|c3-[c2C2]:|
